public/images/home/mysql.svg

<svg width="111" height="58" viewBox="0 0 111 58" fill="none" xmlns="http://www.w3.org/2000/svg">
<path fill-rule="evenodd" clip-rule="evenodd" d="M0.338287 52.3287H4.00741V38.0854L9.6652 50.5068C10.3369 51.9965 11.2339 52.5211 13.0261 52.5211C14.8189 52.5211 15.7153 51.9965 16.387 50.5068L22.0448 38.0854V52.3287H25.6857V38.1126C25.6857 36.733 25.1251 36.0692 23.977 35.7104C21.2042 34.8547 19.3273 35.6002 18.4874 37.45L12.942 49.6784L7.56479 37.45C6.7525 35.6002 4.84795 34.8547 2.07523 35.7104C0.898856 36.0692 0.338915 36.7324 0.338915 38.1126V52.3287H0.338287ZM28.7383 40.7345H32.3792V48.5741C32.3516 49.0152 32.5192 50.0094 34.5361 50.0372C35.5443 50.0638 42.4061 50.0372 42.4619 50.0372V40.7066H46.131C46.1587 40.7066 46.131 53.4312 46.131 53.4869C46.1587 56.6334 42.1819 57.2953 40.3615 57.351H28.8225V54.9222C28.8225 54.9222 40.3339 54.95 40.3615 54.9222C42.7143 54.7013 42.4343 53.5425 42.4343 53.1559V52.2168H34.6761C31.0629 52.1623 28.766 50.6157 28.7383 48.8216C28.7383 48.6564 28.8225 40.818 28.7383 40.7345ZM107.413 31.7083C105.173 31.6532 103.463 31.8462 101.979 32.481C101.56 32.6468 100.915 32.6468 100.831 33.1714C101.055 33.391 101.111 33.7504 101.279 34.0548C101.643 34.6073 102.232 35.3515 102.764 35.7382C103.324 36.1805 103.912 36.6216 104.528 37.0083C105.649 37.6703 106.881 38.0291 107.917 38.6929C108.561 39.0783 109.177 39.5763 109.794 40.0175C110.073 40.2383 110.298 40.5699 110.662 40.7073V40.6528C110.466 40.4041 110.409 40.0453 110.241 39.7681L109.401 38.9404C108.59 37.8917 107.553 36.9526 106.46 36.1805C105.591 35.573 103.631 34.7174 103.267 33.7238C103.239 33.696 103.21 33.696 103.21 33.6682C103.827 33.5846 104.556 33.365 105.116 33.2258C106.069 32.9784 106.936 33.0328 107.916 32.7847C108.365 32.6461 108.812 32.536 109.261 32.3981V32.1494C108.757 31.6526 108.421 30.9628 107.861 30.521C106.433 29.3066 104.864 28.1194 103.268 27.1259C102.371 26.5462 101.279 26.1874 100.327 25.7184C100.018 25.5804 99.4579 25.4976 99.235 25.2216C98.7297 24.6141 98.4786 23.8136 98.0863 23.0959C97.2646 21.5215 96.4987 19.9195 95.79 18.2927C95.3142 17.2162 94.9771 16.1397 94.3902 15.1455C91.4768 10.453 88.3677 7.6103 83.5228 4.822C82.487 4.24232 81.2548 3.99424 79.9378 3.69048C79.2379 3.6348 78.5379 3.60758 77.8374 3.5519C77.4168 3.3861 76.9692 2.8621 76.5486 2.6134C74.9523 1.61983 70.835 -0.560937 69.658 2.30963C68.9016 4.10374 70.7785 5.87063 71.4502 6.78191C71.9272 7.41666 72.5142 8.13492 72.8513 8.85194C73.0741 9.32088 73.1024 9.79045 73.2989 10.2872C73.7747 11.5295 74.167 12.8819 74.7552 14.0134C75.0628 14.5931 75.3986 15.2006 75.791 15.7252C76.0151 16.029 76.4356 16.167 76.4909 16.6637C76.0986 17.2156 76.0716 18.044 75.8475 18.7338C74.8669 21.853 75.231 25.69 76.6874 28.0081C77.1362 28.6979 78.172 30.2161 79.6289 29.637C80.8894 29.1124 80.6088 27.5663 80.9729 26.1589C81.0577 25.8551 81.0012 25.6343 81.1688 25.4134V25.4685C81.5329 26.2412 81.9252 26.9867 82.3175 27.7315C83.1574 29.0845 84.6703 30.5198 85.959 31.4577C86.6025 31.9545 87.1348 32.8107 88.003 33.086V33.0303H87.9195C87.7512 32.7829 87.4989 32.6721 87.303 32.4785C86.799 31.9817 86.239 31.3742 85.8184 30.8223C84.6709 29.2763 83.6345 27.5651 82.6823 25.7982C82.2334 24.9426 81.8411 24.0041 81.4782 23.1485C81.337 22.8175 81.337 22.3207 81.0294 22.1271C80.6088 22.7618 80.0219 23.2865 79.6842 24.0319C79.1801 25.2192 79.0966 26.6817 78.929 28.1726C78.816 28.2277 78.8443 28.1999 78.7878 28.2555C77.8926 28.0347 77.5838 27.1234 77.2479 26.3507C76.4363 24.3908 76.2674 21.2443 76.9956 18.9806C77.1914 18.4009 78.0609 16.579 77.6968 16.0271C77.5273 15.5025 76.9956 15.1715 76.688 14.7577C76.2957 14.2609 75.9316 13.5983 75.6522 13.0186C74.9806 11.4726 74.6717 9.76137 73.9429 8.21596C73.5788 7.47048 73.0195 6.725 72.5431 6.09025C72.0107 5.34477 71.4225 4.82077 71.0032 3.93732C70.8632 3.63356 70.6674 3.13678 70.8632 2.80518C70.9467 2.58432 71.0315 2.50142 71.2543 2.41852C71.6184 2.1426 72.6554 2.52926 73.0465 2.6666C74.0553 3.10832 74.9234 3.49498 75.7916 4.07467C76.2122 4.35059 76.6328 4.87459 77.1368 5.01317H77.6974C78.5938 5.20619 79.6013 5.06823 80.4412 5.31693C81.9258 5.75803 83.2698 6.44846 84.4751 7.22178C88.1718 9.51267 91.1693 12.7699 93.2414 16.6619C93.5773 17.2966 93.7172 17.8763 93.9978 18.5389C94.5866 19.8919 95.3418 21.2715 95.93 22.5688C96.4906 23.894 97.0788 25.2192 97.8904 26.295C98.3393 26.8747 100.019 27.1784 100.776 27.4816C101.308 27.7024 102.175 27.9505 102.681 28.2549C103.661 28.8068 104.585 29.4972 105.509 30.1319C105.956 30.4388 107.356 31.1286 107.413 31.7083Z" fill="#00678C"/>
<path fill-rule="evenodd" clip-rule="evenodd" d="M78.8441 7.72156C78.4573 7.72168 78.072 7.76821 77.6966 7.86014V7.9152H77.7801C78.0042 8.35692 78.3965 8.66068 78.6765 9.04673C78.8724 9.48845 79.0971 9.93018 79.293 10.3719L79.3765 10.289C79.7688 10.0409 79.937 9.59919 79.937 8.90939C79.7971 8.74358 79.7688 8.55056 79.6294 8.35692C79.433 8.08038 79.0971 7.94242 78.8441 7.72156Z" fill="#00678C"/>
<path fill-rule="evenodd" clip-rule="evenodd" d="M48.9603 52.3284H59.463C60.6952 52.3284 61.8992 52.0797 62.8515 51.6374C64.4196 50.921 65.2043 49.954 65.2043 48.6845V46.0348C65.2043 45.0141 64.3079 44.0205 62.6004 43.3851C61.6758 43.0263 60.5552 42.8605 59.463 42.8605H55.0381C53.5535 42.8605 52.8535 42.4182 52.6853 41.4531C52.6571 41.3429 52.6571 41.2322 52.6571 41.1221V39.4932C52.6571 39.383 52.6571 39.3001 52.6853 39.19C52.8535 38.4445 53.2452 38.2237 54.534 38.1136C54.6457 38.1136 54.7857 38.0857 54.8981 38.0857H65.3449V35.6847H55.0663C53.5817 35.6847 52.8253 35.7948 52.1254 35.9879C49.9408 36.6777 48.9886 37.7269 48.9886 39.5767V41.6745C48.9886 43.3035 50.8649 44.6831 53.974 45.0141C54.3381 45.0141 54.674 45.0419 55.0381 45.0419H58.8195C58.9595 45.0419 59.0989 45.0419 59.2106 45.0697C60.3876 45.1799 60.8635 45.3729 61.2275 45.7861C61.4234 46.007 61.5081 46.2006 61.5081 46.4493V48.5472C61.5081 48.7959 61.3399 49.1275 60.9758 49.4028C60.667 49.6794 60.1347 49.8452 59.4347 49.8996C59.2947 49.8996 59.1836 49.9274 59.0424 49.9274H48.9603V52.3284ZM88.003 48.1315C88.003 50.616 89.8517 51.9956 93.6332 52.2721C93.9691 52.3 94.3331 52.3278 94.669 52.3278H104.192V49.9256H94.6125C92.4556 49.9256 91.6439 49.401 91.6439 48.1315V35.6835H88.0024V48.1315H88.003ZM67.5294 48.2694V39.7134C67.5294 37.5326 69.0692 36.2081 72.1502 35.7936C72.459 35.7379 72.8231 35.7379 73.1307 35.7379H80.076C80.4118 35.7379 80.7207 35.7379 81.0847 35.7936C84.1374 36.2081 85.7055 37.5326 85.7055 39.7134V48.2694C85.7055 50.0369 85.0338 50.9748 83.521 51.5823L87.1343 54.7845H82.8776L79.9642 52.2171L77.0227 52.3829H73.1301C72.4584 52.3829 71.7578 52.3006 70.9732 52.0797C68.6499 51.4716 67.5294 50.2572 67.5294 48.2694ZM71.4785 48.0498C71.4785 48.1878 71.5067 48.2973 71.535 48.4365C71.7591 49.4294 72.7107 49.9819 74.1388 49.9819H77.4727L74.4201 47.2765H78.6767L81.3371 49.623C81.8142 49.3743 82.15 48.9877 82.2618 48.4909C82.29 48.353 82.29 48.2434 82.29 48.1321V39.907C82.29 39.8235 82.29 39.714 82.2618 39.6027C82.0377 38.6648 81.086 38.1408 79.6849 38.1408H74.1395C72.5149 38.1408 71.4791 38.8306 71.4791 39.907V48.0498H71.4785ZM105.873 52.3284H106.405V50.3407H107.133V49.9262H105.145V50.3407H105.873V52.3284ZM109.962 52.3284H110.438V49.9262H109.71L109.066 51.583L108.423 49.9262H107.666V52.3284H108.17V50.5065L108.87 52.3284H109.234L109.934 50.5065H109.963V52.3284H109.962Z" fill="#CE8B2C"/>
<path fill-rule="evenodd" clip-rule="evenodd" d="M1.15045 29.6933V20.6393H4.00665C4.67896 20.6393 5.15541 20.695 5.49125 20.8051C5.91121 20.9709 6.24705 21.2468 6.52702 21.6885C6.77937 22.1024 6.91935 22.627 6.91935 23.2346C6.91935 24.0629 6.69588 24.7249 6.27529 25.2223C5.85534 25.7463 5.12654 25.995 4.09077 25.995H2.15797V29.694H1.15045V29.6933ZM2.1586 24.9458H4.11902C4.73546 24.9458 5.18303 24.8078 5.46363 24.5319C5.74423 24.256 5.88359 23.8415 5.88359 23.2896C5.88359 22.9308 5.79947 22.6271 5.65948 22.3784C5.5195 22.1024 5.35126 21.9372 5.15541 21.8543C4.95956 21.7436 4.59484 21.7158 4.0914 21.7158H2.1586V24.9458ZM7.9005 25.2768C7.9005 23.7586 8.23697 22.5714 8.9369 21.7436C9.63682 20.9152 10.4774 20.5013 11.5131 20.5013C12.1854 20.5013 12.8019 20.6671 13.3336 21.0532C13.8941 21.412 14.3141 21.9638 14.6499 22.6543C14.9581 23.3719 15.1258 24.2003 15.1258 25.166C15.1258 26.519 14.8175 27.6233 14.2011 28.4511C13.5012 29.3896 12.6048 29.8585 11.5125 29.8585C10.3926 29.8585 9.49621 29.3617 8.8239 28.4232C8.20872 27.5683 7.9005 26.519 7.9005 25.2768ZM8.9369 25.3046C8.9369 26.4083 9.18862 27.2917 9.69332 27.8992C10.1691 28.5061 10.7856 28.8377 11.5138 28.8377C12.2419 28.8377 12.8584 28.5061 13.3342 27.8992C13.8383 27.2645 14.0906 26.3532 14.0906 25.1394C14.0906 24.3661 13.9506 23.6763 13.6983 23.0688C13.5024 22.5998 13.2218 22.2132 12.8301 21.9372C12.4466 21.6655 11.9855 21.5206 11.5131 21.5234C10.7567 21.5234 10.1409 21.8271 9.66507 22.434C9.161 23.0688 8.9369 24.0073 8.9369 25.3046ZM17.6756 29.6933L15.687 20.6393H16.6951L17.8439 26.5741C17.9838 27.1816 18.0673 27.8163 18.1797 28.4239L18.5155 26.7677L19.9719 20.6399H21.1483L22.2123 25.2223C22.4751 26.278 22.6807 27.3467 22.8281 28.4239C22.9122 27.8442 23.0239 27.1816 23.1922 26.4646L24.3685 20.6399H25.4049L23.3328 29.694H22.3523L20.7559 22.7928L20.5036 21.7442C20.4477 22.1309 20.3636 22.4897 20.3077 22.7928L18.6838 29.6933H17.6756ZM26.3296 29.6933V20.6393H31.7633V21.7164H27.3101V24.4768H31.4833V25.5533H27.3101V28.6447H31.9315V29.6933H26.3296ZM33.3038 29.6933V20.6393H36.637C37.3376 20.6393 37.8693 20.7222 38.1775 20.888C38.514 21.0538 38.7933 21.3576 39.0174 21.7436C39.2133 22.1303 39.3256 22.5992 39.3256 23.0966C39.3256 23.7864 39.1574 24.3383 38.7933 24.78C38.4292 25.1939 37.8969 25.4704 37.197 25.5805C37.4769 25.7463 37.701 25.9121 37.841 26.0773C38.1493 26.4361 38.4016 26.8228 38.6251 27.2367L39.9421 29.6933H38.6816L37.6734 27.8163C37.2811 27.0715 37.0011 26.5741 36.8053 26.326C36.6094 26.0779 36.4129 25.9121 36.2171 25.8014C36.0488 25.7185 35.7971 25.6634 35.4607 25.6634H34.3125V29.6933H33.3038ZM34.3119 24.642H36.4406C36.9164 24.642 37.2805 24.587 37.5046 24.4762C37.7563 24.3655 37.9528 24.1725 38.0928 23.9516C38.2327 23.7035 38.2886 23.427 38.2886 23.1232C38.2886 22.6543 38.1769 22.2954 37.8963 22.0195C37.6163 21.7714 37.224 21.6329 36.6923 21.6329H34.3119V24.642ZM40.922 29.6933V20.6393H46.3557V21.7164H41.9301V24.4768H46.0751V25.5533H41.9301V28.6447H46.5515V29.6933H40.922ZM47.8955 29.6933V20.6393H50.5C51.144 20.6393 51.6205 20.695 51.9563 20.8051C52.4045 20.9431 52.7686 21.219 53.1044 21.6056C53.4127 21.9923 53.665 22.4612 53.8609 23.0409C54.0291 23.6206 54.1126 24.311 54.1126 25.1116C54.1126 26.133 53.9726 27.0164 53.6644 27.7334C53.3562 28.4511 52.9645 28.9479 52.488 29.2516C52.0122 29.5554 51.3675 29.6933 50.6117 29.6933H47.8955ZM48.9043 28.6447H50.5006C51.1447 28.6447 51.6211 28.534 51.957 28.3137C52.2934 28.1207 52.5451 27.7891 52.741 27.3202C52.9651 26.7133 53.0775 25.9678 53.0775 25.1122C53.0775 24.2009 52.9657 23.456 52.7134 22.9314C52.461 22.4068 52.1245 22.048 51.7328 21.8822C51.4805 21.7721 51.0605 21.7164 50.4724 21.7164H48.9036V28.6447H48.9043ZM58.6781 29.6933V20.6393H61.508C62.0955 20.6393 62.5437 20.7222 62.8802 20.9152C63.216 21.081 63.4966 21.3569 63.6931 21.7158C63.916 22.1024 64.0289 22.4891 64.0289 22.958C64.0289 23.3719 63.916 23.7314 63.7484 24.0623C63.5525 24.3933 63.3008 24.6692 62.9649 24.8623C63.3821 25.0236 63.7422 25.302 64.0007 25.6628C64.2518 26.0495 64.3648 26.5184 64.3648 27.0709C64.3648 27.6233 64.2518 28.0916 64.0289 28.5061C63.8048 28.92 63.4966 29.2238 63.1043 29.4174C62.7402 29.6104 62.2079 29.6933 61.5362 29.6933H58.6781ZM59.6875 24.449H61.3121C61.7314 24.449 62.0403 24.4218 62.2085 24.3661C62.4879 24.2832 62.6843 24.118 62.8237 23.925C62.9649 23.732 63.0196 23.4554 63.0196 23.0972C63.0196 22.7656 62.9643 22.4897 62.8513 22.2688C62.7113 22.048 62.5437 21.91 62.319 21.8271C62.1231 21.7442 61.7302 21.7164 61.1985 21.7164H59.6869V24.449H59.6875ZM59.6875 28.6447H61.5632C61.9555 28.6447 62.2631 28.5897 62.4596 28.534C62.733 28.4294 62.961 28.2343 63.1043 27.9821C63.2725 27.7613 63.3271 27.4303 63.3271 27.0715C63.3271 26.7127 63.2719 26.4367 63.1319 26.188C62.9907 25.9672 62.7961 25.7742 62.5431 25.6634C62.319 25.5533 61.9267 25.4976 61.4226 25.4976H59.6863V28.6447H59.6875ZM67.8368 29.6933V25.8564L64.953 20.6393H66.157L67.6403 23.3719C67.9245 23.8758 68.1863 24.3916 68.425 24.9179C68.6491 24.4212 68.9008 23.8965 69.2379 23.3169L70.6943 20.6393H71.8418L68.8456 25.8564V29.6933H67.8368Z" fill="#00678C"/>
</svg>

<svg xmlns="http://www.w3.org/2000/svg" width="111" height="58" fill="none" fill-rule="evenodd" xmlns:v="https://vecta.io/nano"><path d="M.338 52.329h3.669V38.085l5.658 12.421c.672 1.49 1.569 2.014 3.361 2.014s2.689-.525 3.361-2.014l5.658-12.421v14.243h3.641V38.113c0-1.38-.561-2.043-1.709-2.402-2.773-.856-4.65-.11-5.49 1.74l-5.545 12.228L7.565 37.45c-.812-1.85-2.717-2.595-5.49-1.74-1.176.359-1.736 1.022-1.736 2.402v14.216H.338zm28.4-11.594h3.641v7.84c-.028.441.14 1.435 2.157 1.463h7.926v-9.331h3.669c.028 0 0 12.725 0 12.78.028 3.147-3.949 3.808-5.77 3.864H28.823v-2.429h11.539c2.353-.221 2.073-1.38 2.073-1.766v-.939h-7.758c-3.613-.054-5.91-1.601-5.938-3.395v-8.087zm78.675-9.026c-2.24-.055-3.95.138-5.434.773-.419.166-1.064.166-1.148.69.224.22.28.579.448.883.364.553.953 1.297 1.485 1.683.56.442 1.148.883 1.764 1.27 1.121.662 2.353 1.021 3.389 1.685.644.385 1.26.883 1.877 1.325.279.221.504.552.868.69v-.054c-.196-.249-.253-.608-.421-.885l-.84-.828c-.811-1.049-1.848-1.988-2.941-2.76-.869-.608-2.829-1.463-3.193-2.457-.028-.028-.057-.028-.057-.056.617-.084 1.346-.303 1.906-.442.953-.247 1.82-.193 2.8-.441.449-.139.896-.249 1.345-.387v-.249c-.504-.497-.84-1.187-1.4-1.628-1.428-1.214-2.997-2.402-4.593-3.395-.897-.58-1.989-.939-2.941-1.408-.309-.138-.869-.221-1.092-.497-.505-.607-.756-1.408-1.149-2.126a75.88 75.88 0 0 1-2.296-4.803c-.476-1.076-.813-2.153-1.4-3.147-2.913-4.693-6.022-7.535-10.867-10.323-1.036-.58-2.268-.828-3.585-1.132l-2.1-.139c-.421-.166-.868-.69-1.289-.938-1.596-.994-5.714-3.174-6.891-.304-.756 1.794 1.12 3.561 1.792 4.472.477.635 1.064 1.353 1.401 2.07.223.469.251.939.448 1.435.476 1.242.868 2.595 1.456 3.726.308.58.643 1.187 1.036 1.712.224.304.645.442.7.938-.392.552-.419 1.38-.643 2.07-.981 3.119-.617 6.956.84 9.274.449.69 1.485 2.208 2.942 1.629 1.26-.525.98-2.071 1.344-3.478.085-.304.028-.525.196-.745v.055c.364.773.756 1.518 1.149 2.263.84 1.353 2.353 2.788 3.642 3.726.644.497 1.176 1.353 2.044 1.628v-.056h-.084c-.168-.247-.421-.358-.617-.552a16.76 16.76 0 0 1-1.485-1.656c-1.147-1.546-2.184-3.257-3.136-5.024-.449-.856-.841-1.794-1.204-2.65-.141-.331-.141-.828-.449-1.021-.421.635-1.007 1.159-1.345 1.905-.504 1.187-.588 2.65-.755 4.141-.113.055-.085.027-.141.083-.895-.221-1.204-1.132-1.54-1.905-.812-1.96-.981-5.106-.252-7.37.196-.58 1.065-2.402.701-2.953-.169-.525-.701-.856-1.009-1.269-.392-.497-.756-1.159-1.036-1.739-.672-1.546-.98-3.257-1.709-4.803-.364-.745-.923-1.491-1.4-2.126-.532-.745-1.121-1.269-1.54-2.153-.14-.304-.336-.801-.14-1.132a.55.55 0 0 1 .391-.387c.364-.276 1.401.111 1.792.248 1.009.442 1.877.828 2.745 1.408.421.276.841.8 1.345.938h.561c.896.193 1.904.055 2.744.304 1.485.441 2.829 1.132 4.034 1.905 3.697 2.291 6.694 5.548 8.766 9.44.336.635.476 1.214.756 1.877.589 1.353 1.344 2.733 1.932 4.03.561 1.325 1.149 2.65 1.96 3.726.449.58 2.129.883 2.886 1.187.532.221 1.399.469 1.905.773.98.552 1.904 1.242 2.828 1.877.447.307 1.847.997 1.904 1.576zM78.844 7.722a4.83 4.83 0 0 0-1.147.139v.055h.084c.224.442.616.745.896 1.132l.617 1.325.083-.083c.392-.248.561-.69.561-1.38-.14-.166-.168-.359-.308-.552-.196-.277-.532-.415-.785-.635z" fill="#00678c"/><path d="M48.96 52.328h10.503c1.232 0 2.436-.249 3.389-.691 1.568-.716 2.353-1.683 2.353-2.953v-2.65c0-1.021-.896-2.014-2.604-2.65-.925-.359-2.045-.525-3.137-.525h-4.425c-1.485 0-2.185-.442-2.353-1.407-.028-.11-.028-.221-.028-.331v-1.629c0-.11 0-.193.028-.303.168-.745.56-.966 1.849-1.076.112 0 .252-.028.364-.028h10.447v-2.401H55.066c-1.485 0-2.241.11-2.941.303-2.185.69-3.137 1.739-3.137 3.589v2.098c0 1.629 1.876 3.009 4.985 3.34l1.064.028h3.781c.14 0 .279 0 .391.028 1.177.11 1.653.303 2.017.716.196.221.281.415.281.663v2.098c0 .249-.168.58-.532.856-.309.277-.841.442-1.541.497-.14 0-.251.028-.392.028H48.96v2.401zm39.043-4.197c0 2.484 1.849 3.864 5.63 4.141l1.036.056h9.523v-2.402h-9.579c-2.157 0-2.969-.525-2.969-1.794V35.684h-3.642v12.448h.001zm-20.474.138v-8.556c0-2.181 1.54-3.505 4.621-3.92.309-.056.673-.056.981-.056h6.945c.336 0 .645 0 1.009.056 3.053.415 4.621 1.739 4.621 3.92v8.556c0 1.768-.672 2.705-2.184 3.313l3.613 3.202h-4.257l-2.913-2.567-2.942.166H73.13c-.672 0-1.372-.082-2.157-.303-2.323-.608-3.444-1.823-3.444-3.81zm3.949-.22c0 .138.028.248.056.387.224.993 1.176 1.545 2.604 1.545h3.334l-3.053-2.705h4.257l2.66 2.346c.477-.249.813-.635.925-1.132.028-.138.028-.248.028-.359v-8.225c0-.083 0-.193-.028-.304-.224-.938-1.176-1.462-2.577-1.462H74.14c-1.625 0-2.66.69-2.66 1.766v8.143h-.001zm34.395 4.279h.532v-1.988h.728v-.414h-1.988v.414h.728v1.988zm4.089 0h.476v-2.402h-.728l-.644 1.657-.643-1.657h-.757v2.402h.504v-1.822l.7 1.822h.364l.7-1.822h.029v1.822h-.001z" fill="#ce8b2c"/><path d="M1.15 29.693v-9.054h2.856c.672 0 1.149.056 1.485.166.42.166.756.442 1.036.883.252.414.392.938.392 1.546 0 .828-.223 1.49-.644 1.988-.42.524-1.149.773-2.185.773H2.158v3.699H1.15v-.001zm1.008-4.748h1.96c.616 0 1.064-.138 1.345-.414s.42-.69.42-1.242c0-.359-.084-.663-.224-.911-.14-.276-.308-.441-.504-.524-.196-.111-.561-.138-1.064-.138H2.159v3.23zm5.742.331c0-1.518.336-2.705 1.036-3.533s1.54-1.242 2.576-1.242c.672 0 1.289.166 1.821.552.56.359.98.911 1.316 1.601.308.718.476 1.546.476 2.512 0 1.353-.308 2.457-.925 3.285-.7.939-1.596 1.407-2.689 1.407-1.12 0-2.016-.497-2.689-1.435-.615-.855-.923-1.904-.923-3.146zm1.036.028c0 1.104.252 1.987.756 2.595.476.607 1.092.939 1.82.939s1.345-.332 1.82-.939c.504-.635.756-1.546.756-2.76 0-.773-.14-1.463-.392-2.071-.196-.469-.476-.856-.868-1.132-.383-.272-.845-.417-1.317-.414a2.24 2.24 0 0 0-1.848.911c-.504.635-.728 1.573-.728 2.871zm8.739 4.389l-1.989-9.054h1.008l1.149 5.935.336 1.85.336-1.656 1.456-6.128h1.176l1.064 4.582c.263 1.056.468 2.124.616 3.202l.364-1.959 1.176-5.825h1.036l-2.072 9.054h-.98l-1.596-6.901-.252-1.049-.196 1.049-1.624 6.901h-1.008zm8.654 0v-9.054h5.434v1.077H27.31v2.76h4.173v1.076H27.31v3.091h4.621v1.049H26.33zm6.974 0v-9.054h3.333c.701 0 1.232.083 1.541.249.337.166.616.47.84.856.196.387.308.856.308 1.353 0 .69-.168 1.242-.532 1.683-.364.414-.896.69-1.596.8.28.166.504.332.644.497.308.359.561.745.784 1.159l1.317 2.457h-1.261l-1.008-1.877-.868-1.49c-.196-.248-.392-.414-.588-.525-.168-.083-.42-.138-.756-.138h-1.148v4.03h-1.009zm1.008-5.051h2.129c.476 0 .84-.055 1.064-.166.252-.111.448-.304.588-.525.14-.248.196-.525.196-.828 0-.469-.112-.828-.392-1.104-.28-.248-.672-.387-1.204-.387h-2.38v3.009zm6.61 5.051v-9.054h5.434v1.077H41.93v2.76h4.145v1.076H41.93v3.091h4.621v1.049h-5.629zm6.974 0v-9.054H50.5c.644 0 1.12.056 1.456.166.448.138.812.414 1.148.8.308.387.561.856.757 1.435.168.58.252 1.27.252 2.071 0 1.021-.14 1.905-.448 2.622s-.7 1.215-1.176 1.518-1.12.442-1.876.442h-2.716zm1.009-1.049h1.596c.644 0 1.12-.111 1.456-.331.336-.193.588-.525.784-.994.224-.607.337-1.352.337-2.208 0-.911-.112-1.656-.364-2.181s-.589-.883-.981-1.049c-.252-.11-.672-.166-1.26-.166h-1.569v6.928h.001zm9.774 1.049v-9.054h2.83c.587 0 1.036.083 1.372.276.336.166.616.442.813.801.223.387.336.773.336 1.242 0 .414-.113.773-.28 1.104-.196.331-.448.607-.783.8a2.29 2.29 0 0 1 1.036.8c.251.387.364.856.364 1.408s-.113 1.021-.336 1.435-.532.718-.925.911c-.364.193-.896.276-1.568.276h-2.858zm1.009-5.244h1.625c.419 0 .728-.027.896-.083.279-.083.476-.248.615-.441s.196-.47.196-.828c0-.332-.055-.608-.168-.828-.14-.221-.308-.359-.532-.442-.196-.083-.589-.111-1.12-.111h-1.512v2.733h.001zm0 4.196h1.876c.392 0 .7-.055.896-.111.273-.105.501-.3.645-.552.168-.221.223-.552.223-.911s-.055-.635-.195-.884c-.141-.221-.336-.414-.589-.525-.224-.11-.616-.166-1.12-.166h-1.736v3.147h.001zm8.149 1.049v-3.837l-2.884-5.217h1.204l1.483 2.733.785 1.546.813-1.601 1.456-2.678h1.148l-2.996 5.217v3.837h-1.009z" fill="#00678c"/></svg>
